X:1
T:Title
%%score [ 1 2 3 4 ]
L:1/8
Q:1/4=120
M:4/4
K:G
V:1 treble nm="S."
V:2 treble nm="A."
V:3 treble-8 nm="T."
V:4 bass nm="B."
V:1
 d2 d4 c2 | B3 c"^The curtain drawn" B2 A2 | G2 (AB) c2 B2 | AG (FG) A4 | %4
w: The cur- tain|drawn, I saw my|love, I * saw my|love lie sleep * ing;|
"^Giles Farnaby""^(c. 1560 - 1640)" z8 |[M:4/4] z8 | z4 z2 A2 | B3 B Bc d2 | c3 B AA c2 | %9
w: ||Thrice|hap- py was that peep-|ing, thrice hap- py was|
 B2 (cBAG A2) | B4 z4 | z2 (GA) BABc | (d3 c/B/) A2 =f2 | (e2 d4) ^c2 | d8 | z8 | G2 AB A2 c2 | %17
w: that peep * * * *|ing.|For * view- ing her sweet|ly * * ing, her|sweet * ly-|ing||Pre- serves my life and|
 GBAG FF d2 | B2 (AG) FG A2 | G4 z4 | z4 g4 | e3 e f4 | g3 =f e2 d2 | ^c2 d2 e4 | d4 z2 d2 | %25
w: keeps my soul from dy- ing, and|keeps my * soul from dy-|ing.|Of|thou- sand joys,|miss- ing her, I|had miss- ed|all, Whose|
 c3 B A2 c2 | B2 B2 G2 G2 | A4 z2 =f2 | e3 d c2 e2 | d8 | z8 | z4 z2 g2 | f3 e d2 =f2 | %33
w: sight re- vives me|more, re- vives me|more, whose|sight re- vives me|more,||whose|sight re- vives me|
 e3 d ^c2 (Bc) | d2 B2 A2 G2 | F2 (Bc) d2 B2 | A2 G4 F2 | G8 |] %38
w: more, re- vives me *|more than ru- by,|pearl, than * ru- by,|pearl, and cry-|stal.|
V:2
 z8 | G2 G4 =F2 | E3 D EF G2 | (FG)AG F2 E2 | (D3 E) D2 D2 |[M:4/4] E3 =F G2 (DE) | F2 G4 F2 | %7
w: |The cur- tain|drawn, I saw my love,|I * saw my love lie|sleep * ing; I|saw my love, my *|love lie sleep-|
 G6 B2 | G2 A3 GEF | G2 G2 (G2 F2) | G2 (GA) BABc | d2 d2 dcBA | G4 F2"^__" A2- | %13
w: ing; Thrice|hap- py, thrice hap- py|was that peep *|ing. For * view- ing her sweet|ly- ing, view- ing her sweet|ly- ing, for|
"^___" A2 A3 G E2 | F2 G4 F2 | G2 AB A2 c2 | B2 (AG) F2 (GA) | BGAB A2 F2 | G2 cB AG F2 | G4 z4 | %20
w: * view- ing her|sweet ly- ing|Pre- serves my life, pre-|serves my * life and *|keeps my soul from dy- ing,|and keeps my soul from dy-|ing.|
 d4 B3 B | G4 d2 d2 | d4 c2 A2 | A4 A4 | F4 z2 B2 | A3 G F2 (EF) | G3 A BABc | d4 z2 A2 | %28
w: Of thou- sand|joys, miss- ing|her, I had|miss- ed|all, Whose|sight re- vives me *|more, whose sight re- vives me|more, whose|
 c3 B G2 G2 | G3 A B2 G2 | d4 z2 A2 | G3 F E2 E2 | A4 A4 | A2 A2 A2 G2 | F2 G2 F2 (Bc) | %35
w: sight re- vives me|more, re- vives me|more, whose|sight re- vives me|more, whose|sight re- vives me|more than ru- by, *|
 d2 B2 A2 G2 | F2 (Bc) d4 | d8 |] %38
w: pearl, than ru- by,|pearl, and * cry-|stal.|
V:3
 z8 | z8 | z8 | d2 d4 c2 | B3 c B2 A2 |[M:4/4][K:treble-8] G2 c2 cABc | d2 B2 (A2 d2) | d6 z2 | %8
w: |||The cur- tain|drawn, I saw my|love, I saw my love lie,|love lie sleep *|ing;|
 e2 =f3 (e/d/) c2 | d2 (e2 d4) | d4 z2 (GA) | BABc d2 d2 | d4 d3 d | ^c2 (=f2 e4) | %14
w: Thrice hap- py * was|that peep *|ing. For *|view- ing her sweet ly- ing,|for view- ing|her sweet *|
 (d2 cB) (AG) A2 | (Bc) d2 c2 A2 | d4 d2 cA | d4 d4 | (d2 e2) d2 d2 | B3 B ^c4 | A2 A2 d4 | %21
w: ly * * ing * Pre-|serves * my life and|keeps, and keeps my|soul from|dy * ing. Of|thou- sand joys,|miss- ing her,|
 c3 c A2 A2 | B4 A2 =f2 | e2 d4 ^c2 | d4 z4 | z4 z2 A2 | G3 F E2 G2 | F4 G2 A2 | z4 z2 c2 | %29
w: miss- ing her, miss-|\-ing her, I|had miss- ed|all,|Whose|sight re- vives me|more, me more,|whose|
 B3 A G2 B2 | A6 d2 | B2 G(A BABc) |"^____" (d6 (A)B) | (^cBcd e2) e2 | A2 (Bc) d2 B2 | %35
w: sight re- vives me|more, whose|sight re- vives * * * *|* me *|more * * * * than|ru- by, * pearl, and|
 A2 G2 F2 (Bc) | d2 B2 A4 | B8 |] %38
w: cry- stal, ru- by, *|pearl, and cry-|stal.|
V:4
 z8 | z8 | z8 | z8 | G,2 G,4 =F,2 |[M:4/4] E,D,C,D, E,(=F, G,2) | D,8 | G,6 z2 | %8
w: ||||The cur- tain|drawn I saw my love lie *|sleep-|ing;|
 C,2 =F,3 (G, A,2) | G,2 C,2 D,4 | G,8- | G,2 z2 (G,3 A,) | B,A,B,C D2 D,2 | %13
w: Thrice hap- py *|was that peep-|ing.|* For *|view- ing her sweet ly- ing,|
"^This edition ? Andrew Sims 2001" A,8 | D,8 | G,2 F,G, A,2 F,2 | G,4 D,2 E,F, | G,4 D,4 | %18
w: ly-|ing|Pre- serves my life and|keeps, and keeps my|soul from|
 (G,2 C,2) D,2 D,2 | G,3 G, E,4 | F,2 F,2 G,4 | z4 D,3 D, | B,,2 B,,2 C,2 D,2 | A,,8 | D,4 z4 | %25
w: dy * ing. Of|thou- sand joys,|miss- ing her,|miss- ing|her, I had miss-|ed|all,|
 z8 | z4 z2 E,2 | D,3 C, B,,2 D,2 | A,,3 B,, C,4 | z4 z2 G,2 | F,3 E, D,2 =F,2 | E,4 E,4 | %32
w: |Whose|sight re- vives, re-|vives me more,|whose|sight re- vives me|more than|
 D,4 D,4 | A,,8 | D,8 | D,8- | D,8 | G,8 |] %38
w: ru- by,|pearl,|and|cry||stal.|

